symbols/web/no_sim/materialsymbolsrounded/no_sim_wght300_48px.svg

<svg xmlns="http://www.w3.org/2000/svg" height="48" width="48"><path d="m39 34.9-2.25-2.25V7.9q0-.25-.2-.45t-.45-.2H21.45l-5.1 5.1-1.6-1.7 5-5.05q.3-.3.7-.45.4-.15.8-.15H36.1q1.2 0 2.05.85.85.85.85 2.05Zm2.1 9.95-28.45-28.5-1.4 1.4V40.1q0 .25.2.45t.45.2h24.2q.25 0 .45-.2t.2-.45v-2.8L39 39.55v.55q0 1.2-.85 2.05-.85.85-2.05.85H11.9q-1.2 0-2.05-.85Q9 41.3 9 40.1V17.55q0-.45.15-.85.15-.4.5-.7l1.3-1.3L3.9 7.65q-.3-.3-.3-.75t.35-.8q.35-.35.8-.35.45 0 .8.35l37.2 37.2q.3.3.3.75t-.35.8q-.35.35-.8.35-.45 0-.8-.35ZM26.75 22.7Zm-1.95 5.75Z"/></svg>

<svg xmlns="http://www.w3.org/2000/svg" height="48" width="48"><path d="M39 34.9 36.75 32.65V7.9Q36.75 7.65 36.55 7.45Q36.35 7.25 36.1 7.25H21.45L16.35 12.35L14.75 10.65L19.75 5.6Q20.05 5.3 20.45 5.15Q20.85 5 21.25 5H36.1Q37.3 5 38.15 5.85Q39 6.7 39 7.9ZM11.9 43Q10.7 43 9.85 42.15Q9 41.3 9 40.1V17.55Q9 17.1 9.15 16.7Q9.3 16.3 9.65 16L10.95 14.7L3.9 7.65Q3.6 7.35 3.6 6.9Q3.6 6.45 3.95 6.1Q4.3 5.75 4.75 5.75Q5.2 5.75 5.55 6.1L42.75 43.3Q43.05 43.6 43.05 44.05Q43.05 44.5 42.7 44.85Q42.35 45.2 41.9 45.2Q41.45 45.2 41.1 44.85L38.05 41.8Q37.6 42.35 36.925 42.675Q36.25 43 35.4 43ZM12.65 16.35 11.25 17.75V40.1Q11.25 40.35 11.45 40.55Q11.65 40.75 11.9 40.75H35.9Q36 40.75 36.275 40.575Q36.55 40.4 36.55 40.2ZM26.75 22.7Q26.75 22.7 26.75 22.7Q26.75 22.7 26.75 22.7ZM24.8 28.45Q24.8 28.45 24.8 28.45Q24.8 28.45 24.8 28.45Q24.8 28.45 24.8 28.45Q24.8 28.45 24.8 28.45Z"/></svg>
